packages/ui-solid/icons/card_circle_fill_32.svg

<svg width="32" height="32" viewBox="0 0 32 32" fill="none" xmlns="http://www.w3.org/2000/svg">
<path d="M2 11C2 10.0707 2 9.60603 2.07686 9.21964C2.39249 7.63288 3.63288 6.39249 5.21964 6.07686C5.60603 6 6.07069 6 7 6H25C25.9293 6 26.394 6 26.7804 6.07686C28.3671 6.39249 29.6075 7.63288 29.9231 9.21964C30 9.60603 30 10.0707 30 11H2Z" fill="#007AFF"/>
<path fill-rule="evenodd" clip-rule="evenodd" d="M30 14H2V19.6C2 21.8402 2 22.9603 2.43597 23.816C2.81947 24.5686 3.43139 25.1805 4.18404 25.564C5.03969 26 6.15979 26 8.4 26H23.6C25.8402 26 26.9603 26 27.816 25.564C28.5686 25.1805 29.1805 24.5686 29.564 23.816C30 22.9603 30 21.8402 30 19.6V14ZM7 18C6.44772 18 6 18.4477 6 19V21C6 21.5523 6.44772 22 7 22H10C10.5523 22 11 21.5523 11 21V19C11 18.4477 10.5523 18 10 18H7Z" fill="#007AFF"/>
</svg>

<svg xmlns="http://www.w3.org/2000/svg" width="32" height="32" fill="none"><path fill="currentColor" d="M2 11c0-.93 0-1.394.077-1.78A4 4 0 0 1 5.22 6.077C5.606 6 6.07 6 7 6h18c.93 0 1.394 0 1.78.077a4 4 0 0 1 3.143 3.143C30 9.606 30 10.07 30 11z"/><path fill="currentColor" fill-rule="evenodd" d="M30 14H2v5.6c0 2.24 0 3.36.436 4.216a4 4 0 0 0 1.748 1.748C5.04 26 6.16 26 8.4 26h15.2c2.24 0 3.36 0 4.216-.436a4 4 0 0 0 1.748-1.748C30 22.96 30 21.84 30 19.6zM7 18a1 1 0 0 0-1 1v2a1 1 0 0 0 1 1h3a1 1 0 0 0 1-1v-2a1 1 0 0 0-1-1z" clip-rule="evenodd"/></svg>
